X: 135
T: Cantantibus organis – Maestoso
C: Franciszek Walczyński
%%abc-version 2.0
%%abcx-abcm2ps-target-version 5.9.1 (29 Sep 2008)
%%abc-creator hum2abc beta
%%abcx-conversion-date 2021/10/04 07:38:42
%%abc-edited-by Andrzej Kubiczek
%%abc-edited-by Krzysztof Stępień
%%abcx-initial-encoding-date 2021-08-09
%%humdrum-veritas 243965286
%%humdrum-veritas-data 3401991662
%%linebreak <none>
%%barnumbers 0
L: 1/4
M: C|
N: Derived from pl-kozmzk--mzk-m-346--037_walczynski-franciszek--cantantibus-organis-maestoso.krn
Q: "Maestoso."
%%staves {1 2}
V: 1 clef=treble
V: 2 clef=bass
K: F
[V:1] DE/F/GE & DE/F/GE | 
[V:2] D,E,/F,/G,E, & D,E,/F,/G,E, | 
[V:1] !accent!A2FG/F/ & A2D2- | 
[V:2] A,2A,B,/A,/ & !accent!A,2D,2 | 
[V:1] E2D2 & D>^CA,2 | 
[V:2] B,A,/G,/F,2 & G,,A,,D,2 | 
[V:1] DE/F/GE & DE/F/GE | 
[V:2] D,E,/F,/G,E, & D,E,/F,/G,E, | 
[V:1] !accent!B2ed/^c/ & !accent!B2BA- | 
[V:2] !accent!B,2GF/E/ & B,2[^C,^C,,][D,/D,,/][E,/E,,/] | 
[V:1] d=cB2 & A2G2 | 
[V:2] D2-D2 & [F,F,,][^F,^F,,][G,2G,,2] | 
[V:1] GA/B/c!accent!_E & GA/B/cC | 
[V:2] G,A,/B,/CA, & G,A,/B,/C^F, | 
[V:1] D2-!fermata!D/ E/F/G/ & B,2-B,/ z/z | 
[V:2] G,2-G,/ z/z & G,/D,/.B,,/.A,,/ !fermata!G,,/ z/z | 
[V:1] A>GFE/D/ & z/ ^C/D/E/D2- | 
[V:2] z<A,-A,G,/F,/ & z/ A,,/=B,,/^C,/D,2 | 
[V:1] E4 & D3^C | 
[V:2] B,2A,G, & G,,2A,,2 | 
[V:1] D3E & D3^C | 
[V:2] F,G,/A,/B,A,- & D,,E,,/F,,/G,,A,, | 
[V:1] !fermata!^F4 & D4 |]  
[V:2] A,4 & !fermata!D,,4 |]  


